X: 1
T: Tam Lin
T: Howling Wind
T: Glasgow Reel
C: Davey Arthur Finbar Furey
M: 4/4
L: 1/8
S: Paddy O'Brien Tune Collection
R: Reel
N: Paddy O'Brien played this in Dm, but we play it in Em around
N: here.....The original name is Tam Lin, he renamed it with "The Howling
N: Wind" because he thought it needed a better name.
K: EMin
|: ED \
| "Em"B,E~E2 "D"DEFD | "C"C2EC GCEC | "D"D2FD ADFD | CDEG FEDC |
| "Em"B,E~E2 "D"DEFD | "C"C2EC GCEC | "D"D2FD ADFA | GFED "Em"B,E :|
|: GB \
| "Em"eBBA GEGB | eBBA GEGB | "D"dA~A2 FAAB | dAAB defd |
| "Em"eBBA GEGB | eBBA GEDE | "C"CB,CD EDEF | "D"GFED "Em"B,E :|
